polaris-icons/icons/new-icons/FeaturedCollectionMajor.svg

<svg width="20" height="20" viewBox="0 0 20 20" fill="none" xmlns="http://www.w3.org/2000/svg">
<path d="M12.5 6.5C12.5 7.05228 12.0523 7.5 11.5 7.5C10.9477 7.5 10.5 7.05228 10.5 6.5C10.5 5.94772 10.9477 5.5 11.5 5.5C12.0523 5.5 12.5 5.94772 12.5 6.5Z" fill="#4A4A4A"/>
<path fill-rule="evenodd" clip-rule="evenodd" d="M10.1686 3C9.17401 3 8.22018 3.39509 7.51692 4.09835L3.63389 7.98138C2.55994 9.05532 2.55995 10.7965 3.63389 11.8705L6.30631 14.5429C7.28262 15.5192 8.86553 15.5192 9.84184 14.5429L14.0481 10.3366C14.6576 9.72714 15 8.9005 15 8.03854V5.75C15 4.23122 13.7688 3 12.25 3H10.1686ZM8.57758 5.15901C8.99954 4.73705 9.57183 4.5 10.1686 4.5H12.25C12.9404 4.5 13.5 5.05965 13.5 5.75V8.03854C13.5 8.50267 13.3156 8.94779 12.9874 9.27598L8.78118 13.4822C8.39066 13.8728 7.75749 13.8728 7.36697 13.4822L4.69455 10.8098C4.20639 10.3217 4.20639 9.5302 4.69455 9.04204L8.57758 5.15901Z" fill="#4A4A4A"/>
<path d="M17.5 6.25C17.5 5.83579 17.1642 5.5 16.75 5.5C16.3358 5.5 16 5.83579 16 6.25V9.2786C16 9.74684 15.8124 10.1956 15.479 10.5244L14.8483 11.1466C14.5534 11.4375 14.5502 11.9124 14.8411 12.2073C15.132 12.5021 15.6069 12.5054 15.9017 12.2145L16.5325 11.5922C17.1515 10.9815 17.5 10.1482 17.5 9.2786V6.25Z" fill="#4A4A4A"/>
<path fill-rule="evenodd" clip-rule="evenodd" d="M11.8252 13.556C12.5308 12.8657 13.639 12.8182 14.4 13.4135C15.161 12.8182 16.2692 12.8657 16.9748 13.556C17.7417 14.3064 17.7417 15.5298 16.9748 16.2802L15.2742 17.944C14.7883 18.4193 14.0117 18.4193 13.5258 17.944L11.8252 16.2802C11.0583 15.5298 11.0583 14.3064 11.8252 13.556ZM12.8742 14.6282C13.0489 14.4573 13.3389 14.4573 13.5137 14.6282L13.8755 14.9822C14.167 15.2674 14.633 15.2674 14.9245 14.9822L15.2863 14.6282C15.4611 14.4573 15.7511 14.4573 15.9258 14.6282C16.0914 14.7902 16.0914 15.046 15.9258 15.208L14.4 16.7008L12.8742 15.208C12.7086 15.046 12.7086 14.7902 12.8742 14.6282Z" fill="#4A4A4A"/>
</svg>

<svg viewBox="0 0 20 20" xmlns="http://www.w3.org/2000/svg"><path d="M12.5 6.5a1 1 0 1 1-2 0 1 1 0 0 1 2 0Z" fill="#5C5F62"/><path fill-rule="evenodd" d="M10.169 3a3.75 3.75 0 0 0-2.652 1.098l-3.883 3.883a2.75 2.75 0 0 0 0 3.89l2.672 2.672a2.5 2.5 0 0 0 3.536 0l4.206-4.206a3.25 3.25 0 0 0 .952-2.298v-2.289a2.75 2.75 0 0 0-2.75-2.75h-2.081Zm-1.591 2.159a2.25 2.25 0 0 1 1.59-.659h2.082c.69 0 1.25.56 1.25 1.25v2.289c0 .464-.184.909-.513 1.237l-4.206 4.206a1 1 0 0 1-1.414 0l-2.672-2.672a1.25 1.25 0 0 1 0-1.768l3.883-3.883Z" fill="#5C5F62"/><path d="M17.5 6.25a.75.75 0 0 0-1.5 0v3.029c0 .468-.188.917-.521 1.245l-.63.623a.75.75 0 0 0 1.053 1.067l.63-.622a3.25 3.25 0 0 0 .968-2.313v-3.029Z" fill="#5C5F62"/><path fill-rule="evenodd" d="M11.825 13.556a1.964 1.964 0 0 1 2.575-.142 1.964 1.964 0 0 1 2.575.142 1.9 1.9 0 0 1 0 2.724l-1.7 1.664a1.25 1.25 0 0 1-1.75 0l-1.7-1.664a1.9 1.9 0 0 1 0-2.724Zm1.05 1.072a.463.463 0 0 1 .639 0l.362.354a.75.75 0 0 0 1.049 0l.361-.354a.463.463 0 0 1 .64 0 .4.4 0 0 1 0 .58l-1.526 1.493-1.526-1.493a.4.4 0 0 1 0-.58Z" fill="#5C5F62"/></svg>
